docs/svgs/room-hallway.svg

<svg viewBox="0 0 24 24" height="24px" width="24px" fill="#44739e" xmlns="http://www.w3.org/2000/svg"><title>hue:room-hallway</title><desc>Source: https://github.com/arallsopp/hass-hue-icons</desc><path d="M 20.980469 16.367188 L 18.824219 6.785156 C 18.484375 5.277344 17.039062 4.320312 15.535156 4.546875 L 14.949219 3.667969 C 14.671875 3.25 14.203125 3 13.703125 3 L 12.75 3 C 12.335938 3 12 3.335938 12 3.75 L 12 5.25 L 10.5 5.25 L 10.5 0.75 C 10.5 0.335938 10.164062 0 9.75 0 C 9.335938 0 9 0.335938 9 0.75 L 9 9 L 6 9 L 6 7.5 C 6 7.085938 5.664062 6.75 5.25 6.75 C 4.835938 6.75 4.5 7.085938 4.5 7.5 L 4.5 9.75 C 4.5 10.164062 4.835938 10.5 5.25 10.5 L 9 10.5 L 9 21.75 L 6 21.75 C 5.171875 21.75 4.5 22.421875 4.5 23.25 C 4.5 23.664062 4.835938 24 5.25 24 L 14.25 24 C 14.664062 24 15 23.664062 15 23.25 C 15 22.421875 14.328125 21.75 13.5 21.75 L 10.5 21.75 L 10.5 6.75 L 12 6.75 L 12 18.75 C 12 19.164062 12.335938 19.5 12.75 19.5 L 13.753906 19.5 C 15.308594 19.5 16.46875 18.078125 16.167969 16.558594 L 15.253906 12 L 16.082031 8.269531 L 18.054688 17.027344 C 18.144531 17.429688 18.546875 17.683594 18.953125 17.59375 L 20.414062 17.261719 C 20.820312 17.171875 21.074219 16.773438 20.980469 16.367188 "/></svg>

<svg viewBox="0 0 24 24" height="24px" width="24px" fill="#44739e" xmlns="http://www.w3.org/2000/svg"><title>hue:room-hallway</title><desc>Source: https://github.com/arallsopp/hass-hue-icons</desc><path d="M20.98,16.37l-2.16-9.58c-0.34-1.51-1.79-2.46-3.29-2.24l-0.59-0.88C14.67,3.25,14.2,3,13.7,3h-0.95 C12.34,3,12,3.34,12,3.75v1.5h-1.5v-4.5C10.5,0.34,10.16,0,9.75,0S9,0.34,9,0.75V9H6V7.5c0-0.41-0.34-0.75-0.75-0.75 S4.5,7.09,4.5,7.5v2.25c0,0.41,0.34,0.75,0.75,0.75H9v11.25H6c-0.83,0-1.5,0.67-1.5,1.5C4.5,23.66,4.84,24,5.25,24h9 c0.41,0,0.75-0.34,0.75-0.75c0-0.83-0.67-1.5-1.5-1.5h-3v-15H12v12c0,0.41,0.34,0.75,0.75,0.75h1c1.55,0,2.71-1.42,2.41-2.94 L15.25,12l0.83-3.73l1.97,8.76c0.09,0.4,0.49,0.66,0.9,0.57l1.46-0.33C20.82,17.17,21.07,16.77,20.98,16.37"/></svg>
